X:44
T:Liverpool Hornpipe. JBu.44
O:England,South Yorkshire
S:Joshua Burnett’s MS,c1835,S.Yorkshire
M:4/4
L:1/8
Q:1/2=90
R:.hornpipe
N:No time sig in MS
Z:vmp.R.Greig.2011
K:D
AG|(FD)FA (df)af|(ge)fd (dc)BA|(GB)GB (FA)FA|(ED)EF (GF)ED|
(FD)FA (df)af|(ge)fd (dc)BA|(fa)f” ‘d’ added”d (Bg)ec|d2d2d2:|
|:Ac|(df)df (ce)ce|(BA)Bc (dc)BA|(GB)GB (FA)FA|(ED)EF (GF)ED|
(FD)FA (df)af|(ge)fd (dc)BA|(fg)af (bg)ec|d2d2d2:|

